X:15
T:Brighton Races. Pn1801.15
Q:1/4=100
M:C
L:1/8
C:"455""p188"
W:1st Lady goes round the 2d Cu: her Partner follow her .| follow back to proper places :|
W:lead down two Cu :|. up again & cast off :||:
B:Preston 24 for 1801
Z:Village Music Project, John Adams, 2017
K:A
e|ce2 f/g/ a/g/f/e/ ae|aeaeg2B2|ce2 f/g/ a/g/f/e/ ac|dfed c2A:|
|:B|c/d/e Ac dfBd|cd/e/ Ac B2E2|c/d/e Ac dfBg|aefd c2A2:|
